staging/svg/tranquilidad.svg

<?xml version="1.0" encoding="UTF-8"?>
<svg width="84px" height="48px" viewBox="0 0 84 48" version="1.1" xmlns="http://www.w3.org/2000/svg" xmlns:xlink="http://www.w3.org/1999/xlink">
    <!-- Generator: Sketch 55.2 (78181) - https://sketchapp.com -->
    <title>Group 2</title>
    <desc>Created with Sketch.</desc>
    <g id="final" stroke="none" stroke-width="1" fill="none" fill-rule="evenodd">
        <g id="mobile_V1" transform="translate(-145.000000, -1826.000000)" fill="#439417" fill-rule="nonzero">
            <g id="Group-2" transform="translate(145.000000, 1826.000000)">
                <g id="Group">
                    <path d="M6.82394366,10.4571429 C4.9084507,10.4571429 3.11267606,10.1142857 1.31690141,9.25714286 C0.35915493,8.91428571 -0.23943662,7.37142857 0.11971831,6 C0.478873239,4.62857143 1.43661972,3.77142857 2.3943662,4.28571429 C5.02816901,5.31428571 7.78169014,5.48571429 10.5352113,4.62857143 L20.2323944,1.37142857 C22.8661972,0.514285714 25.5,0.514285714 28.2535211,1.2 L37.471831,3.6 C39.3873239,4.11428571 41.4225352,4.11428571 43.4577465,3.6 L52.556338,1.02857143 C54.9507042,0.342857143 57.4647887,0.342857143 59.9788732,1.02857143 L72.9084507,4.62857143 C75.7816901,5.48571429 78.7746479,5.14285714 81.528169,3.6 C82.4859155,3.08571429 83.443662,3.77142857 83.8028169,5.14285714 C84.1619718,6.51428571 83.6830986,7.88571429 82.7253521,8.4 C79.3732394,10.1142857 75.6619718,10.6285714 72.1901408,9.6 L59.2605634,6 C57.2253521,5.48571429 55.1901408,5.48571429 53.2746479,6 L44.1760563,8.57142857 C41.7816901,9.25714286 39.3873239,9.25714286 36.8732394,8.57142857 L27.6549296,6.17142857 C25.5,5.65714286 23.3450704,5.65714286 21.1901408,6.34285714 L11.4929577,9.6 C9.81690141,10.2857143 8.26056338,10.4571429 6.82394366,10.4571429 Z" id="Path"></path>
                    <path d="M6.82394366,28.2857143 C4.9084507,28.2857143 3.11267606,27.9428571 1.31690141,27.0857143 C0.35915493,26.7428571 -0.23943662,25.2 0.11971831,23.8285714 C0.35915493,22.4571429 1.43661972,21.6 2.3943662,22.1142857 C5.02816901,23.1428571 7.78169014,23.3142857 10.5352113,22.4571429 L20.2323944,19.2 C22.8661972,18.3428571 25.5,18.3428571 28.2535211,19.0285714 L37.471831,21.4285714 C39.3873239,21.9428571 41.4225352,21.9428571 43.4577465,21.4285714 L52.556338,18.8571429 C54.9507042,18.1714286 57.4647887,18.1714286 59.9788732,18.8571429 L72.9084507,22.4571429 C75.7816901,23.3142857 78.7746479,22.9714286 81.528169,21.4285714 C82.4859155,20.9142857 83.443662,21.6 83.8028169,22.9714286 C84.1619718,24.3428571 83.6830986,25.7142857 82.7253521,26.2285714 C79.3732394,27.9428571 75.6619718,28.4571429 72.1901408,27.4285714 L59.2605634,23.8285714 C57.2253521,23.3142857 55.1901408,23.3142857 53.2746479,23.8285714 L44.1760563,26.4 C41.7816901,27.0857143 39.3873239,27.0857143 36.8732394,26.4 L27.6549296,24 C25.5,23.4857143 23.3450704,23.4857143 21.1901408,24.1714286 L11.4929577,27.4285714 C9.81690141,28.1142857 8.26056338,28.2857143 6.82394366,28.2857143 Z" id="Path"></path>
                    <path d="M6.82394366,47.1428571 C4.9084507,47.1428571 3.11267606,46.8 1.31690141,45.9428571 C0.35915493,45.6 -0.23943662,44.0571429 0.11971831,42.6857143 C0.35915493,41.3142857 1.43661972,40.4571429 2.3943662,40.9714286 C5.02816901,42 7.78169014,42.1714286 10.5352113,41.3142857 L20.2323944,38.0571429 C22.8661972,37.2 25.5,37.2 28.2535211,37.8857143 L37.471831,40.2857143 C39.3873239,40.8 41.4225352,40.8 43.4577465,40.2857143 L52.556338,37.7142857 C54.9507042,37.0285714 57.4647887,37.0285714 59.9788732,37.7142857 L72.9084507,41.3142857 C75.7816901,42.1714286 78.7746479,41.8285714 81.528169,40.2857143 C82.4859155,39.7714286 83.443662,40.4571429 83.8028169,41.8285714 C84.1619718,43.2 83.6830986,44.5714286 82.7253521,45.0857143 C79.3732394,46.9714286 75.6619718,47.3142857 72.1901408,46.2857143 L59.2605634,42.6857143 C57.2253521,42.1714286 55.1901408,42.1714286 53.2746479,42.6857143 L44.1760563,45.2571429 C41.7816901,45.9428571 39.2676056,45.9428571 36.8732394,45.2571429 L27.6549296,42.8571429 C25.5,42.3428571 23.3450704,42.3428571 21.1901408,43.0285714 L11.4929577,46.2857143 C9.81690141,46.9714286 8.26056338,47.1428571 6.82394366,47.1428571 Z" id="Path"></path>
                </g>
            </g>
        </g>
    </g>
</svg>

<svg xmlns="http://www.w3.org/2000/svg" width="84" height="48">
  <g fill="#439417" fill-rule="nonzero">
    <path d="M6.824 10.457c-1.916 0-3.711-.343-5.507-1.2C.359 8.914-.24 7.371.12 6c.359-1.371 1.317-2.229 2.274-1.714 2.634 1.028 5.388 1.2 8.141.343l9.697-3.258C22.866.514 25.5.514 28.254 1.2l9.218 2.4c1.915.514 3.95.514 5.986 0l9.098-2.571c2.395-.686 4.909-.686 7.423 0l12.93 3.6c2.873.857 5.866.514 8.62-1.029.957-.514 1.915.171 2.274 1.543.359 1.371-.12 2.743-1.078 3.257-3.352 1.714-7.063 2.229-10.535 1.2L59.26 6c-2.035-.514-4.07-.514-5.985 0l-9.099 2.571c-2.394.686-4.789.686-7.303 0l-9.218-2.4c-2.155-.514-4.31-.514-6.465.172L11.493 9.6c-1.676.686-3.232.857-4.67.857zM6.824 28.286c-1.916 0-3.711-.343-5.507-1.2C.359 26.743-.24 25.2.12 23.829c.24-1.372 1.317-2.229 2.274-1.715 2.634 1.029 5.388 1.2 8.141.343l9.697-3.257c2.634-.857 5.268-.857 8.022-.171l9.218 2.4c1.915.514 3.95.514 5.986 0l9.098-2.572c2.395-.686 4.909-.686 7.423 0l12.93 3.6c2.873.857 5.866.514 8.62-1.028.957-.515 1.915.171 2.274 1.542.359 1.372-.12 2.743-1.078 3.258-3.352 1.714-7.063 2.228-10.535 1.2l-12.93-3.6c-2.035-.515-4.07-.515-5.985 0L44.176 26.4c-2.394.686-4.789.686-7.303 0L27.655 24c-2.155-.514-4.31-.514-6.465.171l-9.697 3.258c-1.676.685-3.232.857-4.67.857zM6.824 47.143c-1.916 0-3.711-.343-5.507-1.2C.359 45.6-.24 44.057.12 42.686c.24-1.372 1.317-2.229 2.274-1.715 2.634 1.029 5.388 1.2 8.141.343l9.697-3.257c2.634-.857 5.268-.857 8.022-.171l9.218 2.4c1.915.514 3.95.514 5.986 0l9.098-2.572c2.395-.685 4.909-.685 7.423 0l12.93 3.6c2.873.857 5.866.515 8.62-1.028.957-.515 1.915.171 2.274 1.543.359 1.371-.12 2.742-1.078 3.257-3.352 1.885-7.063 2.228-10.535 1.2l-12.93-3.6c-2.035-.515-4.07-.515-5.985 0l-9.099 2.571a13.22 13.22 0 0 1-7.303 0l-9.218-2.4c-2.155-.514-4.31-.514-6.465.172l-9.697 3.257c-1.676.685-3.232.857-4.67.857z"/>
  </g>
</svg>
